X:1
T:WITHIN A MILE OF CLONBUR -- REEL
B:Ryan's Mammoth Collection of Fiddle Tunes
R:reel
Z:Contributed 20000418192536 by John Chambers jchambers:casc.com
Z:Contributed by Ray Davies,  ray:davies99.freeserve.co.uk
M:C|
L:1/8
K:G
vBddg egdg | egdB (BA)A2 | Bddg edgd | BdAc BGG2 |
 Bddg egdg | egdB  BAA2  | Bddg edgd | BdAc BGG2 :|
|: ((3efg) (dg) agbg | ((3efg) (dg) eaka2 |\
   ((3efg) (dg) agbg | edef agkg2 |
   ((3efg) (dg) agbg | ((3efg) dg (ea)ka2 |\
   bgaf gded | BGAF GGG2 :|
